svg/emoji_u1f3f3_200d_26a7.svg

<?xml version="1.0" encoding="UTF-8" standalone="no"?>
<svg
   width="100%"
   height="100%"
   viewBox="0 0 128 128"
   version="1.1"
   xml:space="preserve"
   style="fill-rule:evenodd;clip-rule:evenodd;stroke-linejoin:round;stroke-miterlimit:1.41421;"
   id="svg15945"
   sodipodi:docname="emoji_u1f3f3_200d_26a7.svg"
   inkscape:version="1.2.2 (732a01da63, 2022-12-09)"
   xmlns:inkscape="http://www.inkscape.org/namespaces/inkscape"
   xmlns:sodipodi="http://sodipodi.sourceforge.net/DTD/sodipodi-0.dtd"
   xmlns="http://www.w3.org/2000/svg"
   xmlns:svg="http://www.w3.org/2000/svg"><defs
   id="defs15949" /><sodipodi:namedview
   id="namedview15947"
   pagecolor="#ffffff"
   bordercolor="#000000"
   borderopacity="0.25"
   inkscape:showpageshadow="2"
   inkscape:pageopacity="0.0"
   inkscape:pagecheckerboard="0"
   inkscape:deskcolor="#d1d1d1"
   showgrid="false"
   inkscape:zoom="2.9996795"
   inkscape:cx="46.171599"
   inkscape:cy="86.342556"
   inkscape:window-width="1366"
   inkscape:window-height="697"
   inkscape:window-x="-8"
   inkscape:window-y="-8"
   inkscape:window-maximized="1"
   inkscape:current-layer="svg15945" />
    
    <path
   d="m 124,20.819999 a 49.167,49.167 0 0 1 -5.43,2.85 c -1.78,0.8 -3.52,1.45 -5.24,1.98 -1.72,0.53 -3.4,0.95 -5.06,1.26 -1.66,0.32 -3.29,0.54 -4.89,0.68 -1.59999,0.14 -3.19,0.2 -4.750002,0.2 -1.560001,0 -3.09999,-0.06 -4.620001,-0.18 -1.52,-0.11 -3.02,-0.28 -4.5,-0.48 -1.479999,-0.21 -2.949999,-0.45 -4.4,-0.73 -1.449999,-0.28 -2.89,-0.58 -4.32,-0.91 a 138.8,138.8 0 0 1 -4.249989,-1.05 c -1.41001,-0.37 -2.810001,-0.76 -4.21001,-1.15 -1.39999,-0.39 -2.78999,-0.81 -4.17,-1.22 -1.39,-0.41 -2.769991,-0.83 -4.15999,-1.25 -1.38001,-0.42 -2.77,-0.84 -4.16,-1.25 -1.39,-0.41 -2.78,-0.82 -4.17,-1.22 -1.390005,-0.4 -2.800005,-0.78 -4.210005,-1.15 -1.41,-0.37 -2.83,-0.72 -4.25,-1.05 -1.43,-0.33 -2.87,-0.64 -4.32,-0.91 -1.45,-0.28 -2.92,-0.52 -4.4,-0.73 -1.480001,-0.21 -2.980001,-0.37 -4.5,-0.48 a 63.94,63.94 0 0 0 -4.620001,-0.18 c -1.56,0 -3.14,0.06 -4.75,0.2 a 47.91,47.91 0 0 0 -9.95,1.94 c -1.72,0.53 -3.46,1.18 -5.2399995,1.98 -1.78,0.8 -3.58,1.73 -5.43,2.85 V 107.18 c 1.85,-1.12 3.66,-2.06 5.43,-2.85 1.7799995,-0.8 3.5199995,-1.45 5.2399995,-1.98 1.72,-0.53 3.4,-0.95 5.06,-1.26 1.66,-0.32 3.290001,-0.54 4.89,-0.68 1.61,-0.14 3.19,-0.2 4.75,-0.2 1.56,0 3.1,0.06 4.620001,0.18 1.519999,0.11 3.019999,0.28 4.5,0.48 1.48,0.21 2.95,0.45 4.4,0.73 1.45,0.28 2.89,0.58 4.32,0.91 1.43,0.33 2.849999,0.68 4.25,1.05 1.409999,0.37 2.81,0.76 4.210004,1.15 1.400001,0.4 2.78999,0.81 4.17,1.22 1.38,0.41 2.77,0.83 4.16,1.25 1.379991,0.42 2.76999,0.84 4.15999,1.25 1.39,0.41 2.78,0.82 4.17,1.22 1.40001,0.4 2.8,0.78 4.21,1.15 1.41,0.37 2.83,0.72 4.25,1.05 1.43,0.33 2.87,0.64 4.32,0.91 1.45,0.28 2.92,0.52 4.4,0.73 1.48,0.21 2.98,0.37 4.5,0.48 1.520001,0.11 3.06,0.18 4.620001,0.18 1.560002,0 3.140002,-0.06 4.750002,-0.2 a 47.91,47.91 0 0 0 9.95,-1.94 c 1.72,-0.53 3.46,-1.18 5.24,-1.98 1.78,-0.8 3.59,-1.74 5.43,-2.85 V 26.149999 Z"
   fill="#3e3e3e"
   paint-order="stroke fill markers"
   id="path15257"
   style="fill:#75dbff;fill-opacity:1" /><path
   id="path861"
   d="M29.369,31.102C27.809,31.102 26.229,31.161 24.619,31.301C21.243,31.594 17.909,32.245 14.67,33.242C12.95,33.772 11.21,34.421 9.43,35.221C7.65,36.021 5.85,36.952 4,38.072L4,55.344C5.85,54.224 7.65,53.294 9.43,52.494C11.21,51.694 12.95,51.044 14.67,50.514C17.909,49.517 21.243,48.867 24.619,48.574C26.229,48.434 27.809,48.373 29.369,48.373C30.911,48.377 32.453,48.437 33.99,48.553C35.51,48.663 37.01,48.823 38.49,49.033C39.97,49.243 41.441,49.484 42.891,49.764C44.341,50.034 45.781,50.344 47.211,50.674C48.631,51.004 50.051,51.353 51.461,51.723C52.871,52.093 54.28,52.473 55.67,52.873C57.06,53.273 58.45,53.684 59.84,54.094C61.23,54.504 62.62,54.924 64,55.344C65.39,55.764 66.77,56.184 68.16,56.594C69.54,57.004 70.93,57.424 72.33,57.814C73.73,58.204 75.129,58.593 76.539,58.963C77.95,59.335 79.367,59.686 80.789,60.014C82.219,60.344 83.659,60.644 85.109,60.924C86.559,61.204 88.03,61.444 89.51,61.654C90.99,61.854 92.49,62.023 94.01,62.133C95.53,62.253 97.071,62.314 98.631,62.314C100.191,62.314 101.781,62.253 103.381,62.113C104.981,61.973 106.61,61.754 108.27,61.434C109.93,61.124 111.61,60.704 113.33,60.174C115.05,59.644 116.79,58.993 118.57,58.193C120.438,57.357 122.251,56.406 124,55.344L124,38.072C122.251,39.134 120.438,40.086 118.57,40.922C116.79,41.722 115.05,42.372 113.33,42.902C111.61,43.432 109.93,43.852 108.27,44.162C106.61,44.482 104.981,44.702 103.381,44.842C101.781,44.982 100.191,45.041 98.631,45.041C97.071,45.041 95.53,44.981 94.01,44.861C92.49,44.751 90.99,44.581 89.51,44.381C88.03,44.171 86.559,43.932 85.109,43.652C83.659,43.372 82.219,43.072 80.789,42.742C79.367,42.414 77.95,42.063 76.539,41.691C75.129,41.321 73.73,40.931 72.33,40.541C70.93,40.151 69.54,39.732 68.16,39.322C66.77,38.912 65.39,38.492 64,38.072C62.62,37.652 61.23,37.232 59.84,36.822C58.45,36.412 57.06,36.002 55.67,35.602C54.28,35.202 52.871,34.821 51.461,34.451C50.051,34.081 48.631,33.732 47.211,33.402C45.781,33.072 44.341,32.762 42.891,32.492C41.441,32.212 39.97,31.972 38.49,31.762C37.01,31.552 35.51,31.391 33.99,31.281C32.453,31.165 30.911,31.106 29.369,31.102Z"
   style="fill:rgb(255,210,227);fill-rule:nonzero;" />
    <path
   id="path863"
   d="M29.369,48.373C27.809,48.373 26.229,48.432 24.619,48.572C21.243,48.865 17.909,49.517 14.67,50.514C12.95,51.044 11.21,51.692 9.43,52.492C7.65,53.292 5.85,54.224 4,55.344L4,72.615C5.85,71.495 7.65,70.566 9.43,69.766C11.21,68.966 12.95,68.315 14.67,67.785C17.909,66.788 21.243,66.139 24.619,65.846C26.229,65.706 27.809,65.645 29.369,65.645C30.911,65.649 32.453,65.708 33.99,65.824C35.51,65.934 37.01,66.095 38.49,66.305C39.97,66.515 41.441,66.755 42.891,67.035C44.341,67.305 45.781,67.615 47.211,67.945C48.631,68.275 50.051,68.624 51.461,68.994C52.871,69.364 54.28,69.745 55.67,70.145C57.06,70.545 58.45,70.955 59.84,71.365C61.23,71.775 62.62,72.195 64,72.615C65.39,73.035 66.77,73.455 68.16,73.865C69.54,74.275 70.93,74.696 72.33,75.086C73.73,75.476 75.129,75.864 76.539,76.234C77.95,76.606 79.367,76.957 80.789,77.285C82.219,77.615 83.659,77.915 85.109,78.195C86.559,78.475 88.03,78.716 89.51,78.926C90.99,79.126 92.49,79.294 94.01,79.404C95.53,79.524 97.071,79.586 98.631,79.586C100.191,79.586 101.781,79.525 103.381,79.385C104.981,79.245 106.61,79.025 108.27,78.705C109.93,78.395 111.61,77.975 113.33,77.445C115.05,76.915 116.79,76.265 118.57,75.465C120.438,74.629 122.251,73.677 124,72.615L124,55.344C122.251,56.406 120.438,57.357 118.57,58.193C116.79,58.993 115.05,59.644 113.33,60.174C111.61,60.704 109.93,61.124 108.27,61.434C106.61,61.754 104.981,61.973 103.381,62.113C101.781,62.253 100.191,62.313 98.631,62.313C97.071,62.313 95.53,62.253 94.01,62.133C92.49,62.023 90.99,61.852 89.51,61.652C88.03,61.442 86.559,61.204 85.109,60.924C83.659,60.644 82.219,60.344 80.789,60.014C79.367,59.686 77.95,59.335 76.539,58.963C75.129,58.593 73.73,58.203 72.33,57.813C70.93,57.423 69.54,57.004 68.16,56.594C66.77,56.184 65.39,55.764 64,55.344C62.62,54.924 61.23,54.504 59.84,54.094C58.45,53.684 57.06,53.273 55.67,52.873C54.28,52.473 52.871,52.093 51.461,51.723C50.051,51.353 48.631,51.004 47.211,50.674C45.781,50.344 44.341,50.034 42.891,49.764C41.441,49.484 39.97,49.243 38.49,49.033C37.01,48.823 35.51,48.663 33.99,48.553C32.453,48.437 30.911,48.377 29.369,48.373Z"
   style="fill:white;fill-rule:nonzero;" />
    <path
   id="path865"
   d="M29.369,65.645C27.809,65.645 26.229,65.704 24.619,65.844C21.243,66.137 17.909,66.788 14.67,67.785C12.95,68.315 11.21,68.964 9.43,69.764C7.65,70.564 5.85,71.495 4,72.615L4,89.887C5.85,88.767 7.65,87.837 9.43,87.037C11.21,86.237 12.95,85.587 14.67,85.057C17.909,84.06 21.243,83.41 24.619,83.117C26.229,82.977 27.809,82.916 29.369,82.916C30.911,82.92 32.453,82.98 33.99,83.096C35.51,83.206 37.01,83.366 38.49,83.576C39.97,83.786 41.441,84.027 42.891,84.307C44.341,84.577 45.781,84.887 47.211,85.217C48.631,85.547 50.051,85.896 51.461,86.266C52.871,86.636 54.28,87.016 55.67,87.416C57.06,87.816 58.45,88.227 59.84,88.637C61.23,89.047 62.62,89.467 64,89.887C65.39,90.307 66.77,90.727 68.16,91.137C69.54,91.547 70.93,91.967 72.33,92.357C73.73,92.747 75.129,93.136 76.539,93.506C77.95,93.878 79.367,94.229 80.789,94.557C82.219,94.887 83.659,95.187 85.109,95.467C86.559,95.747 88.03,95.987 89.51,96.197C90.99,96.397 92.49,96.566 94.01,96.676C95.53,96.796 97.071,96.857 98.631,96.857C100.191,96.857 101.781,96.796 103.381,96.656C104.981,96.516 106.61,96.297 108.27,95.977C109.93,95.667 111.61,95.247 113.33,94.717C115.05,94.187 116.79,93.536 118.57,92.736C120.438,91.9 122.251,90.949 124,89.887L124,72.615C122.251,73.677 120.438,74.629 118.57,75.465C116.79,76.265 115.05,76.915 113.33,77.445C111.61,77.975 109.93,78.395 108.27,78.705C106.61,79.025 104.981,79.245 103.381,79.385C101.781,79.525 100.191,79.584 98.631,79.584C97.071,79.584 95.53,79.524 94.01,79.404C92.49,79.294 90.99,79.124 89.51,78.924C88.03,78.714 86.559,78.475 85.109,78.195C83.659,77.915 82.219,77.615 80.789,77.285C79.367,76.957 77.95,76.606 76.539,76.234C75.129,75.864 73.73,75.474 72.33,75.084C70.93,74.694 69.54,74.275 68.16,73.865C66.77,73.455 65.39,73.035 64,72.615C62.62,72.195 61.23,71.775 59.84,71.365C58.45,70.955 57.06,70.545 55.67,70.145C54.28,69.745 52.871,69.364 51.461,68.994C50.051,68.624 48.631,68.275 47.211,67.945C45.781,67.615 44.341,67.305 42.891,67.035C41.441,66.755 39.97,66.515 38.49,66.305C37.01,66.095 35.51,65.934 33.99,65.824C32.453,65.708 30.911,65.649 29.369,65.645Z"
   style="fill:rgb(255,210,227);fill-rule:nonzero;" />
    
    
</svg>

<?xml version="1.0" encoding="UTF-8" standalone="no"?>
<svg
   width="100%"
   height="100%"
   viewBox="0 0 128 128"
   version="1.1"
   xml:space="preserve"
   style="fill-rule:evenodd;clip-rule:evenodd;stroke-linejoin:round;stroke-miterlimit:1.41421;"
   id="svg15945"
   sodipodi:docname="emoji_u1f3f3_200d_26a7.svg"
   inkscape:version="1.2.2 (732a01da63, 2022-12-09)"
   xmlns:inkscape="http://www.inkscape.org/namespaces/inkscape"
   xmlns:sodipodi="http://sodipodi.sourceforge.net/DTD/sodipodi-0.dtd"
   xmlns="http://www.w3.org/2000/svg"
   xmlns:svg="http://www.w3.org/2000/svg"><defs
   id="defs15949" /><sodipodi:namedview
   id="namedview15947"
   pagecolor="#ffffff"
   bordercolor="#000000"
   borderopacity="0.25"
   inkscape:showpageshadow="2"
   inkscape:pageopacity="0.0"
   inkscape:pagecheckerboard="0"
   inkscape:deskcolor="#d1d1d1"
   showgrid="false"
   inkscape:zoom="4.2421875"
   inkscape:cx="48.913444"
   inkscape:cy="63.882136"
   inkscape:window-width="1366"
   inkscape:window-height="697"
   inkscape:window-x="-8"
   inkscape:window-y="-8"
   inkscape:window-maximized="1"
   inkscape:current-layer="svg15945" />
    <path
   id="path857"
   d="M29.369,13.83C27.809,13.83 26.229,13.889 24.619,14.029C21.243,14.322 17.909,14.974 14.67,15.971C12.95,16.501 11.21,17.149 9.43,17.949C7.99,18.596 6.538,19.329 5.057,20.178C4.404,20.554 4.001,21.251 4.001,22.005C4,25.926 4,38.072 4,38.072C5.85,36.952 7.65,36.023 9.43,35.223C11.21,34.423 12.95,33.772 14.67,33.242C17.909,32.245 21.243,31.596 24.619,31.303C26.229,31.163 27.809,31.102 29.369,31.102C30.911,31.106 32.453,31.165 33.99,31.281C35.51,31.391 37.01,31.552 38.49,31.762C39.97,31.972 41.441,32.212 42.891,32.492C44.341,32.762 45.781,33.072 47.211,33.402C48.631,33.732 50.051,34.081 51.461,34.451C52.871,34.821 54.28,35.202 55.67,35.602C57.06,36.002 58.45,36.412 59.84,36.822C61.23,37.232 62.62,37.652 64,38.072C65.39,38.492 66.77,38.912 68.16,39.322C69.54,39.732 70.93,40.153 72.33,40.543C73.73,40.933 75.129,41.321 76.539,41.691C77.95,42.063 79.367,42.414 80.789,42.742C82.219,43.072 83.659,43.372 85.109,43.652C86.559,43.932 88.03,44.173 89.51,44.383C90.99,44.583 92.49,44.751 94.01,44.861C95.53,44.981 97.071,45.043 98.631,45.043C100.191,45.043 101.781,44.982 103.381,44.842C104.981,44.702 106.61,44.482 108.27,44.162C109.93,43.852 111.61,43.432 113.33,42.902C115.05,42.372 116.79,41.722 118.57,40.922C120.438,40.086 122.251,39.134 124,38.072C124,38.072 124,29.455 124,24.394C124,23.659 123.618,22.978 122.991,22.595C122.364,22.211 121.584,22.182 120.93,22.517C120.154,22.916 119.367,23.294 118.57,23.65C116.79,24.45 115.05,25.101 113.33,25.631C111.61,26.161 109.93,26.581 108.27,26.891C106.61,27.211 104.981,27.43 103.381,27.57C101.781,27.71 100.191,27.77 98.631,27.77C97.071,27.77 95.53,27.71 94.01,27.59C92.49,27.48 90.99,27.309 89.51,27.109C88.03,26.899 86.559,26.661 85.109,26.381C83.659,26.101 82.219,25.801 80.789,25.471C79.367,25.143 77.95,24.792 76.539,24.42C75.129,24.05 73.73,23.66 72.33,23.27C70.93,22.88 69.54,22.461 68.16,22.051C66.77,21.641 65.39,21.221 64,20.801C62.62,20.381 61.23,19.961 59.84,19.551C58.45,19.141 57.06,18.73 55.67,18.33C54.28,17.93 52.871,17.55 51.461,17.18C50.051,16.81 48.631,16.461 47.211,16.131C45.781,15.801 44.341,15.491 42.891,15.221C41.441,14.941 39.97,14.7 38.49,14.49C37.01,14.28 35.51,14.12 33.99,14.01C32.453,13.894 30.911,13.834 29.369,13.83Z"
   style="fill:rgb(117,219,255);fill-rule:nonzero;" />
    <path
   id="path861"
   d="M29.369,31.102C27.809,31.102 26.229,31.161 24.619,31.301C21.243,31.594 17.909,32.245 14.67,33.242C12.95,33.772 11.21,34.421 9.43,35.221C7.65,36.021 5.85,36.952 4,38.072L4,55.344C5.85,54.224 7.65,53.294 9.43,52.494C11.21,51.694 12.95,51.044 14.67,50.514C17.909,49.517 21.243,48.867 24.619,48.574C26.229,48.434 27.809,48.373 29.369,48.373C30.911,48.377 32.453,48.437 33.99,48.553C35.51,48.663 37.01,48.823 38.49,49.033C39.97,49.243 41.441,49.484 42.891,49.764C44.341,50.034 45.781,50.344 47.211,50.674C48.631,51.004 50.051,51.353 51.461,51.723C52.871,52.093 54.28,52.473 55.67,52.873C57.06,53.273 58.45,53.684 59.84,54.094C61.23,54.504 62.62,54.924 64,55.344C65.39,55.764 66.77,56.184 68.16,56.594C69.54,57.004 70.93,57.424 72.33,57.814C73.73,58.204 75.129,58.593 76.539,58.963C77.95,59.335 79.367,59.686 80.789,60.014C82.219,60.344 83.659,60.644 85.109,60.924C86.559,61.204 88.03,61.444 89.51,61.654C90.99,61.854 92.49,62.023 94.01,62.133C95.53,62.253 97.071,62.314 98.631,62.314C100.191,62.314 101.781,62.253 103.381,62.113C104.981,61.973 106.61,61.754 108.27,61.434C109.93,61.124 111.61,60.704 113.33,60.174C115.05,59.644 116.79,58.993 118.57,58.193C120.438,57.357 122.251,56.406 124,55.344L124,38.072C122.251,39.134 120.438,40.086 118.57,40.922C116.79,41.722 115.05,42.372 113.33,42.902C111.61,43.432 109.93,43.852 108.27,44.162C106.61,44.482 104.981,44.702 103.381,44.842C101.781,44.982 100.191,45.041 98.631,45.041C97.071,45.041 95.53,44.981 94.01,44.861C92.49,44.751 90.99,44.581 89.51,44.381C88.03,44.171 86.559,43.932 85.109,43.652C83.659,43.372 82.219,43.072 80.789,42.742C79.367,42.414 77.95,42.063 76.539,41.691C75.129,41.321 73.73,40.931 72.33,40.541C70.93,40.151 69.54,39.732 68.16,39.322C66.77,38.912 65.39,38.492 64,38.072C62.62,37.652 61.23,37.232 59.84,36.822C58.45,36.412 57.06,36.002 55.67,35.602C54.28,35.202 52.871,34.821 51.461,34.451C50.051,34.081 48.631,33.732 47.211,33.402C45.781,33.072 44.341,32.762 42.891,32.492C41.441,32.212 39.97,31.972 38.49,31.762C37.01,31.552 35.51,31.391 33.99,31.281C32.453,31.165 30.911,31.106 29.369,31.102Z"
   style="fill:rgb(255,210,227);fill-rule:nonzero;" />
    <path
   id="path863"
   d="M29.369,48.373C27.809,48.373 26.229,48.432 24.619,48.572C21.243,48.865 17.909,49.517 14.67,50.514C12.95,51.044 11.21,51.692 9.43,52.492C7.65,53.292 5.85,54.224 4,55.344L4,72.615C5.85,71.495 7.65,70.566 9.43,69.766C11.21,68.966 12.95,68.315 14.67,67.785C17.909,66.788 21.243,66.139 24.619,65.846C26.229,65.706 27.809,65.645 29.369,65.645C30.911,65.649 32.453,65.708 33.99,65.824C35.51,65.934 37.01,66.095 38.49,66.305C39.97,66.515 41.441,66.755 42.891,67.035C44.341,67.305 45.781,67.615 47.211,67.945C48.631,68.275 50.051,68.624 51.461,68.994C52.871,69.364 54.28,69.745 55.67,70.145C57.06,70.545 58.45,70.955 59.84,71.365C61.23,71.775 62.62,72.195 64,72.615C65.39,73.035 66.77,73.455 68.16,73.865C69.54,74.275 70.93,74.696 72.33,75.086C73.73,75.476 75.129,75.864 76.539,76.234C77.95,76.606 79.367,76.957 80.789,77.285C82.219,77.615 83.659,77.915 85.109,78.195C86.559,78.475 88.03,78.716 89.51,78.926C90.99,79.126 92.49,79.294 94.01,79.404C95.53,79.524 97.071,79.586 98.631,79.586C100.191,79.586 101.781,79.525 103.381,79.385C104.981,79.245 106.61,79.025 108.27,78.705C109.93,78.395 111.61,77.975 113.33,77.445C115.05,76.915 116.79,76.265 118.57,75.465C120.438,74.629 122.251,73.677 124,72.615L124,55.344C122.251,56.406 120.438,57.357 118.57,58.193C116.79,58.993 115.05,59.644 113.33,60.174C111.61,60.704 109.93,61.124 108.27,61.434C106.61,61.754 104.981,61.973 103.381,62.113C101.781,62.253 100.191,62.313 98.631,62.313C97.071,62.313 95.53,62.253 94.01,62.133C92.49,62.023 90.99,61.852 89.51,61.652C88.03,61.442 86.559,61.204 85.109,60.924C83.659,60.644 82.219,60.344 80.789,60.014C79.367,59.686 77.95,59.335 76.539,58.963C75.129,58.593 73.73,58.203 72.33,57.813C70.93,57.423 69.54,57.004 68.16,56.594C66.77,56.184 65.39,55.764 64,55.344C62.62,54.924 61.23,54.504 59.84,54.094C58.45,53.684 57.06,53.273 55.67,52.873C54.28,52.473 52.871,52.093 51.461,51.723C50.051,51.353 48.631,51.004 47.211,50.674C45.781,50.344 44.341,50.034 42.891,49.764C41.441,49.484 39.97,49.243 38.49,49.033C37.01,48.823 35.51,48.663 33.99,48.553C32.453,48.437 30.911,48.377 29.369,48.373Z"
   style="fill:white;fill-rule:nonzero;" />
    <path
   id="path865"
   d="M29.369,65.645C27.809,65.645 26.229,65.704 24.619,65.844C21.243,66.137 17.909,66.788 14.67,67.785C12.95,68.315 11.21,68.964 9.43,69.764C7.65,70.564 5.85,71.495 4,72.615L4,89.887C5.85,88.767 7.65,87.837 9.43,87.037C11.21,86.237 12.95,85.587 14.67,85.057C17.909,84.06 21.243,83.41 24.619,83.117C26.229,82.977 27.809,82.916 29.369,82.916C30.911,82.92 32.453,82.98 33.99,83.096C35.51,83.206 37.01,83.366 38.49,83.576C39.97,83.786 41.441,84.027 42.891,84.307C44.341,84.577 45.781,84.887 47.211,85.217C48.631,85.547 50.051,85.896 51.461,86.266C52.871,86.636 54.28,87.016 55.67,87.416C57.06,87.816 58.45,88.227 59.84,88.637C61.23,89.047 62.62,89.467 64,89.887C65.39,90.307 66.77,90.727 68.16,91.137C69.54,91.547 70.93,91.967 72.33,92.357C73.73,92.747 75.129,93.136 76.539,93.506C77.95,93.878 79.367,94.229 80.789,94.557C82.219,94.887 83.659,95.187 85.109,95.467C86.559,95.747 88.03,95.987 89.51,96.197C90.99,96.397 92.49,96.566 94.01,96.676C95.53,96.796 97.071,96.857 98.631,96.857C100.191,96.857 101.781,96.796 103.381,96.656C104.981,96.516 106.61,96.297 108.27,95.977C109.93,95.667 111.61,95.247 113.33,94.717C115.05,94.187 116.79,93.536 118.57,92.736C120.438,91.9 122.251,90.949 124,89.887L124,72.615C122.251,73.677 120.438,74.629 118.57,75.465C116.79,76.265 115.05,76.915 113.33,77.445C111.61,77.975 109.93,78.395 108.27,78.705C106.61,79.025 104.981,79.245 103.381,79.385C101.781,79.525 100.191,79.584 98.631,79.584C97.071,79.584 95.53,79.524 94.01,79.404C92.49,79.294 90.99,79.124 89.51,78.924C88.03,78.714 86.559,78.475 85.109,78.195C83.659,77.915 82.219,77.615 80.789,77.285C79.367,76.957 77.95,76.606 76.539,76.234C75.129,75.864 73.73,75.474 72.33,75.084C70.93,74.694 69.54,74.275 68.16,73.865C66.77,73.455 65.39,73.035 64,72.615C62.62,72.195 61.23,71.775 59.84,71.365C58.45,70.955 57.06,70.545 55.67,70.145C54.28,69.745 52.871,69.364 51.461,68.994C50.051,68.624 48.631,68.275 47.211,67.945C45.781,67.615 44.341,67.305 42.891,67.035C41.441,66.755 39.97,66.515 38.49,66.305C37.01,66.095 35.51,65.934 33.99,65.824C32.453,65.708 30.911,65.649 29.369,65.645Z"
   style="fill:rgb(255,210,227);fill-rule:nonzero;" />
    <path
   id="path867"
   d="M29.369,82.916C27.809,82.916 26.229,82.975 24.619,83.115C21.243,83.408 17.909,84.06 14.67,85.057C12.95,85.587 11.21,86.235 9.43,87.035C7.65,87.835 5.85,88.767 4,89.887C4,89.887 4,98.506 4,103.567C4,104.301 4.382,104.983 5.009,105.366C5.635,105.749 6.416,105.779 7.07,105.445C7.861,105.037 8.647,104.66 9.43,104.309C11.21,103.509 12.95,102.858 14.67,102.328C17.909,101.331 21.243,100.682 24.619,100.389C26.229,100.249 27.809,100.188 29.369,100.188C30.911,100.192 32.453,100.251 33.99,100.367C35.51,100.477 37.01,100.638 38.49,100.848C39.97,101.058 41.441,101.298 42.891,101.578C44.341,101.848 45.781,102.158 47.211,102.488C48.631,102.818 50.051,103.167 51.461,103.537C52.871,103.907 54.28,104.287 55.67,104.687C57.06,105.087 58.45,105.498 59.84,105.908C61.23,106.318 62.62,106.738 64,107.158C65.39,107.578 66.77,107.998 68.16,108.408C69.54,108.818 70.93,109.239 72.33,109.629C73.73,110.019 75.129,110.407 76.539,110.777C77.95,111.149 79.367,111.5 80.789,111.828C82.219,112.158 83.659,112.458 85.109,112.738C86.559,113.018 88.03,113.259 89.51,113.469C90.99,113.669 92.49,113.837 94.01,113.947C95.53,114.067 97.071,114.129 98.631,114.129C100.191,114.129 101.781,114.068 103.381,113.928C104.981,113.788 106.61,113.568 108.27,113.248C109.93,112.938 111.61,112.518 113.33,111.988C115.05,111.458 116.79,110.808 118.57,110.008C120.065,109.339 121.525,108.596 122.945,107.781C123.597,107.404 123.999,106.708 123.999,105.955C124,102.036 124,89.887 124,89.887C122.251,90.949 120.438,91.9 118.57,92.736C116.79,93.536 115.05,94.187 113.33,94.717C111.61,95.247 109.93,95.667 108.27,95.977C106.61,96.297 104.981,96.516 103.381,96.656C101.781,96.796 100.191,96.855 98.631,96.855C97.071,96.855 95.53,96.796 94.01,96.676C92.49,96.566 90.99,96.395 89.51,96.195C88.03,95.985 86.559,95.747 85.109,95.467C83.659,95.187 82.219,94.887 80.789,94.557C79.367,94.229 77.95,93.878 76.539,93.506C75.129,93.136 73.73,92.745 72.33,92.355C70.93,91.965 69.54,91.547 68.16,91.137C66.77,90.727 65.39,90.307 64,89.887C62.62,89.467 61.23,89.047 59.84,88.637C58.45,88.227 57.06,87.816 55.67,87.416C54.28,87.016 52.871,86.636 51.461,86.266C50.051,85.896 48.631,85.547 47.211,85.217C45.781,84.887 44.341,84.577 42.891,84.307C41.441,84.027 39.97,83.786 38.49,83.576C37.01,83.366 35.51,83.206 33.99,83.096C32.453,82.98 30.911,82.92 29.369,82.916Z"
   style="fill:rgb(117,219,255);fill-rule:nonzero;" />
    
</svg>
